X:268
T:Typsy Gypsy
C:David Grisman
N:Tabledited by Mike Stangeland
L:1/8
Q:1/4=249
M:4/4
K:F
z6 A_d |: "Dm"df e_d =df e_d | d2 d4 be | _a=a _a=a _af ed | "A7"_d=d e2 e2 Ac | 
_dg ec dg ec | _dg e2 z_g =ge | _g=g fg ed _dB |1 A"Dm"F D2 z2 A_d :|2 A"Dm"F D2 z2 DF | 
|: "Gm"GB AB _dB A_G | GB AB _dB AF | "Dm"DF DC DF DC | DF D2 z2 DF |1 G"Gm"B AB _dB A_G | 
GB AB _dB AB | "E7"dB AB _eB AB | "A7"e6 DF :|2 G"Gm"B AB _dB AB | eB AB fg ef | 
"E7"gf ef _af ea | "A7"a6 A_d | AF D2 D4 | 
 

